packs/brands/hashnode.svg

<svg xmlns="http://www.w3.org/2000/svg" viewBox="0 0 512 512"><!--! Font Awesome Free 6.5.2 by @fontawesome - https://fontawesome.com License - https://fontawesome.com/license/free (Icons: CC BY 4.0, Fonts: SIL OFL 1.1, Code: MIT License) Copyright 2024 Fonticons, Inc. --><path d="M35.19 171.1C-11.72 217.1-11.72 294 35.19 340.9L171.1 476.8C217.1 523.7 294 523.7 340.9 476.8L476.8 340.9C523.7 294 523.7 217.1 476.8 171.1L340.9 35.19C294-11.72 217.1-11.72 171.1 35.19L35.19 171.1zM315.5 315.5C282.6 348.3 229.4 348.3 196.6 315.5C163.7 282.6 163.7 229.4 196.6 196.6C229.4 163.7 282.6 163.7 315.5 196.6C348.3 229.4 348.3 282.6 315.5 315.5z"/></svg>

<svg xmlns="http://www.w3.org/2000/svg" viewBox="0 0 512 512"><!--! Font Awesome Free 6.5.2 by @fontawesome - https://fontawesome.com License - https://fontawesome.com/license/free (Icons: CC BY 4.0, Fonts: SIL OFL 1.1, Code: MIT License) Copyright 2024 Fonticons, Inc.--><path d="M35.19 171.1c-46.91 46-46.91 122.9 0 169.8L171.1 476.8c46 46.9 122.9 46.9 169.8 0l135.9-135.9c46.9-46.9 46.9-123.8 0-169.8L340.9 35.19c-46.9-46.91-123.8-46.91-169.8 0zM315.5 315.5c-32.9 32.8-86.1 32.8-118.9 0-32.9-32.9-32.9-86.1 0-118.9 32.8-32.9 86-32.9 118.9 0 32.8 32.8 32.8 86 0 118.9"/></svg>
